src/static/logos/zapier.svg

<?xml version="1.0" encoding="UTF-8" standalone="no"?>
<svg width="256px" height="256px" viewBox="0 0 256 256" version="1.1" xmlns="http://www.w3.org/2000/svg" xmlns:xlink="http://www.w3.org/1999/xlink" preserveAspectRatio="xMidYMid">
    <g>
        <path d="M159.998995,128.056308 C159.994973,137.568327 158.253449,146.670102 155.084116,155.080094 C146.678146,158.249427 137.568327,159.990951 128.052286,160.003016 L127.943692,160.003016 C118.435695,159.990951 109.325876,158.253449 100.919906,155.084116 C97.7505734,146.678146 96.0050275,137.568327 96.0010055,128.056308 L96.0010055,127.943692 C96.0050275,118.435695 97.7465515,109.325876 100.911862,100.923928 C109.317832,97.7505734 118.431673,96.0050275 127.943692,96.0010055 L128.052286,96.0010055 C137.568327,96.0050275 146.678146,97.7505734 155.084116,100.923928 C158.253449,109.325876 159.994973,118.435695 159.998995,127.943692 L159.998995,128.056308 L159.998995,128.056308 Z M254.222278,106.667337 L179.505672,106.667337 L232.33458,53.8344069 C228.183881,48.0025137 223.554564,42.5326002 218.50696,37.4849961 L218.50696,37.4809741 C213.459356,32.437392 207.989442,27.8161194 202.161571,23.6654203 L149.328641,76.4983504 L149.328641,1.78174391 C142.414831,0.619387274 135.311987,0.00402199529 128.064352,0 L127.931626,0 C120.683991,0.00402199529 113.585169,0.619387274 106.667337,1.78174391 L106.667337,76.4983504 L53.8344069,23.6654203 C48.0025137,27.8161194 42.5366222,32.441414 37.4970621,37.4890181 L37.4689081,37.509128 C32.429348,42.5486881 27.8120974,48.0105577 23.6613983,53.8344069 L76.4983504,106.667337 L1.78174391,106.667337 C1.78174391,106.667337 0,120.700079 0,127.955758 L0,128.044242 C0,135.299921 0.615365279,142.410809 1.78174391,149.332663 L76.4983504,149.332663 L23.6613983,202.165593 C31.9708405,213.825357 42.1746426,224.033181 53.8344069,232.338602 L106.667337,179.50165 L106.667337,254.222278 C113.581147,255.380613 120.671925,255.991956 127.907494,256 L128.088484,256 C135.328075,255.991956 142.426897,255.380613 149.328641,254.222278 L149.328641,179.50165 L202.165593,232.338602 C207.993464,228.187903 213.459356,223.562608 218.50696,218.519026 L218.519026,218.50696 C223.558586,213.459356 228.187903,207.989442 232.33458,202.165593 L179.497628,149.332663 L254.222278,149.332663 C255.384635,142.422875 255.991956,135.332097 256,128.092506 L256,127.907494 C255.991956,120.667903 255.384635,113.577125 254.222278,106.667337 L254.222278,106.667337 Z" fill="#FF4A00"></path>
    </g>
</svg>

<svg width="256" height="256" xmlns="http://www.w3.org/2000/svg" preserveAspectRatio="xMidYMid"><path d="M159.999 128.056a76.55 76.55 0 01-4.915 27.024 76.745 76.745 0 01-27.032 4.923h-.108c-9.508-.012-18.618-1.75-27.024-4.919A76.557 76.557 0 0196 128.056v-.112a76.598 76.598 0 014.91-27.02A76.492 76.492 0 01127.945 96h.108a76.475 76.475 0 0127.032 4.923 76.51 76.51 0 014.915 27.02v.112zm94.223-21.389h-74.716l52.829-52.833a128.518 128.518 0 00-13.828-16.349v-.004a129 129 0 00-16.345-13.816l-52.833 52.833V1.782A128.606 128.606 0 00128.064 0h-.132c-7.248.004-14.347.62-21.265 1.782v74.716L53.834 23.665A127.82 127.82 0 0037.497 37.49l-.028.02A128.803 128.803 0 0023.66 53.834l52.837 52.833H1.782S0 120.7 0 127.956v.088c0 7.256.615 14.367 1.782 21.289h74.716l-52.837 52.833a128.91 128.91 0 0030.173 30.173l52.833-52.837v74.72a129.3 129.3 0 0021.24 1.778h.181a129.15 129.15 0 0021.24-1.778v-74.72l52.838 52.837a128.994 128.994 0 0016.341-13.82l.012-.012a129.245 129.245 0 0013.816-16.341l-52.837-52.833h74.724c1.163-6.91 1.77-14 1.778-21.24v-.186c-.008-7.24-.615-14.33-1.778-21.24z" fill="#FF4A00"/></svg>
